X: 190
T: The Perth Assembly
C:Reel
M:C
L:1/8
Z:J Weismiller , 14/11/1998
K:F
|:G|"F"A2 cA "Bb"B2 dB|"F" A2 cA "C7"Bg G2|"F"A2 cA "Bb"Bcde|"F"fcdB AF
F:|
|:e|"F"f2 af "C/E"e2 ge|"Dm"f2 df "C"e2 ce|"Bb"d2 Bd "F/A"c2 Ac|"Gm"BG
"C"cA "F"F3|
g|"F"agfa "C/E"gfeg|"Dm" fedf "C"edce|"Bb"dcBd "F/A"cBAc|"Gm"defg "F"af
f||

